svgs/sharp-light/border-top.svg

<svg xmlns="http://www.w3.org/2000/svg" viewBox="0 0 448 512"><!--! Font Awesome Pro 6.6.0 by @fontawesome - https://fontawesome.com License - https://fontawesome.com/license (Commercial License) Copyright 2024 Fonticons, Inc. --><path d="M0 32l448 0 0 32L0 64 0 32zM8 136l48 0 0 48L8 184l0-48zm432 0l0 48-48 0 0-48 48 0zm-240 0l48 0 0 48-48 0 0-48zM56 328l0 48L8 376l0-48 48 0zm336 0l48 0 0 48-48 0 0-48zm-144 0l0 48-48 0 0-48 48 0zM8 232l48 0 0 48L8 280l0-48zm432 0l0 48-48 0 0-48 48 0zm-240 0l48 0 0 48-48 0 0-48zM56 424l0 48L8 472l0-48 48 0zm336 0l48 0 0 48-48 0 0-48zm-144 0l0 48-48 0 0-48 48 0zM104 232l48 0 0 48-48 0 0-48zm48 192l0 48-48 0 0-48 48 0zm144 0l48 0 0 48-48 0 0-48zm48-192l0 48-48 0 0-48 48 0z"/></svg>

<svg xmlns="http://www.w3.org/2000/svg" viewBox="0 0 448 512"><!--! Font Awesome Pro 6.4.0 by @fontawesome - https://fontawesome.com License - https://fontawesome.com/license (Commercial License) Copyright 2023 Fonticons, Inc. --><path d="M0 32H448V64H0V32zM8 136H56v48H8V136zm432 0v48H392V136h48zm-240 0h48v48H200V136zM56 328v48H8V328H56zm336 0h48v48H392V328zm-144 0v48H200V328h48zM8 232H56v48H8V232zm432 0v48H392V232h48zm-240 0h48v48H200V232zM56 424v48H8V424H56zm336 0h48v48H392V424zm-144 0v48H200V424h48zM104 232h48v48H104V232zm48 192v48H104V424h48zm144 0h48v48H296V424zm48-192v48H296V232h48z"/></svg>
